X: 1170
T: Road to Athlone., The
B:O'Neill's Music of Ireland
N:O'Neill's - 1170
Z:Transcribed by Stephen Foy (shf@access.digex.net)
Z:abc 1.6
M:9/8
R:slipjig
K:F
f|cdB ABG FAc|cAF FAc d2 f|cdB ABG FAc|fga gfe d2:|
|:c|fef gfe dcA|fef gfe d2 (f/g/)|aff gfe def|cAF FAc d2:|


